assets/images/logo_red-cfed715f.svg

<svg viewBox="0 0 241 28" xmlns="http://www.w3.org/2000/svg" fill-rule="evenodd" clip-rule="evenodd" stroke-linejoin="round" stroke-miterlimit="1.414"><g fill="#BD2628"><g fill-rule="nonzero"><path d="M27.597.78c.063.014.08.014.14.04.068.028.12.07.175.12l6.42 6.68c.046.054.06.066.093.13.073.145.075.32.006.467-.03.065-.044.078-.087.134L18.097 26.24c-.052.05-.063.065-.126.102-.164.097-.375.097-.54 0-.063-.036-.074-.052-.126-.102L1.058 8.392c-.044-.056-.06-.068-.09-.133C.9 8.11.903 7.937.975 7.79c.032-.064.047-.076.092-.13L7.47.94c.018-.016.035-.034.054-.05.056-.044.122-.077.192-.097.062-.017.08-.015.143-.02 6.578 0 13.173-.435 19.737.006zM2.187 8.04L17.7 25.08 33.212 8 27.297 1.85H8.087l-5.9 6.192z"/><path d="M33.56 8.522l-31.985.075-.002-1.073 31.985-.074.003 1.072z"/><path d="M17.754.81c.083.013.158.035.228.08.046.03.055.042.094.078L24.1 7.202l2.943-6.094.03-.057c.054-.07.11-.13.188-.175.057-.032.12-.054.183-.064.265-.04.526.128.598.385.025.084.028.172.01.257-.012.056-.02.07-.042.122L24.73 8.36c-.032.058-.065.11-.113.156-.142.135-.353.182-.54.12-.083-.03-.15-.077-.215-.136l-6.175-6.39-6.3 6.393-.05.044c-.053.038-.106.07-.17.09-.187.06-.397.01-.538-.127-.05-.047-.08-.1-.112-.157L7.372 1.566c-.02-.053-.03-.066-.04-.123-.02-.106-.008-.217.035-.317.026-.06.063-.114.108-.16.187-.19.497-.213.71-.05.07.054.118.122.16.2l2.82 6.084L17.31.965l.044-.04c.05-.038.1-.07.16-.09.05-.018.065-.018.12-.027.06-.003.06-.003.12 0z"/><path d="M24.31 7.503c.08.014.155.036.226.08.156.1.25.276.25.46-.002.062-.016.12-.034.178l-6.557 17.842c-.04.093-.09.174-.172.237-.208.163-.514.147-.704-.038-.06-.057-.097-.122-.13-.196L10.503 8.224c-.018-.06-.033-.115-.034-.178-.005-.207.115-.4.3-.492.075-.037.152-.05.235-.054 4.435 0 8.877-.247 13.304.003zm-12.532 1.07l5.91 15.764L23.48 8.572H11.78z"/></g><ellipse cx="8.468" cy="1.98" rx="1.954" ry="1.98"/><ellipse cx="33.219" cy="8.482" rx="1.954" ry="1.98"/><ellipse cx="26.706" cy="1.98" rx="1.954" ry="1.98"/><ellipse cx="1.954" cy="8.482" rx="1.954" ry="1.98"/><ellipse cx="17.587" cy="25.387" rx="1.954" ry="1.98"/><path d="M69.98 9.138c0 3.15-1.377 5.134-4.13 5.953l5.005 6.937H66.75l-4.567-6.417h-4.24v6.417h-3.23V2.94h7.114c2.918 0 5.007.49 6.265 1.474 1.258.983 1.888 2.557 1.888 4.724zm-4.295 2.703c.656-.563.984-1.47.984-2.716 0-1.247-.338-2.103-1.013-2.567-.675-.464-1.878-.696-3.61-.696H57.94v6.828h4.022c1.824 0 3.064-.282 3.72-.847zm18.192 3.524V7.5h3.064v14.527h-3.063v-2.65c-.492.894-1.172 1.594-2.038 2.104-.867.51-1.802.766-2.805.766-1.642 0-2.968-.5-3.98-1.502-1.013-1-1.52-2.45-1.52-4.342V7.5H76.6v7.973c0 2.677 1.113 4.015 3.338 4.015 1.057 0 1.978-.35 2.763-1.052.785-.7 1.177-1.725 1.177-3.072zm20.053-6.062c1.386 1.347 2.08 3.14 2.08 5.38 0 2.24-.69 4.06-2.066 5.46-1.377 1.403-2.982 2.104-4.815 2.104-1.834 0-3.48-.8-4.94-2.403v2.184h-3.063V1.765h3.064v8.274c1.204-1.84 2.782-2.76 4.734-2.76 1.95 0 3.62.675 5.006 2.022zm-8.536 8.89c.84.882 1.86 1.323 3.064 1.323s2.253-.437 3.147-1.31c.893-.875 1.34-2.008 1.34-3.4 0-1.393-.438-2.55-1.313-3.47-.876-.918-1.924-1.378-3.146-1.378s-2.253.46-3.092 1.38c-.84.92-1.258 2.07-1.258 3.454 0 1.384.42 2.518 1.258 3.4zm15.703 9.625c-1.33 0-2.535-.483-3.61-1.448l1.395-2.486c.638.6 1.3.902 1.983.902.684 0 1.24-.246 1.67-.738.427-.49.642-1.028.642-1.61 0-.256-1.96-5.235-5.882-14.94h3.283l4.35 10.706 4.35-10.705h3.282l-7.058 17.258c-.42.947-1.02 1.693-1.806 2.24-.784.546-1.65.82-2.6.82zm29.683-5.79h-8.37V2.94h7.44c1.295 0 2.412.154 3.35.463.94.31 1.638.728 2.094 1.256.875.982 1.313 2.093 1.313 3.33 0 1.494-.474 2.604-1.423 3.333-.346.254-.583.414-.71.477-.128.064-.356.17-.685.314 1.185.255 2.13.788 2.83 1.598.703.81 1.054 1.816 1.054 3.018 0 1.33-.456 2.503-1.368 3.522-1.076 1.184-2.918 1.775-5.526 1.775zm-5.143-11.17h4.103c2.335 0 3.502-.79 3.502-2.375 0-.91-.283-1.565-.848-1.966-.565-.4-1.44-.6-2.626-.6h-4.13v4.942zm0 8.194h5.06c1.186 0 2.094-.186 2.723-.56.63-.372.944-1.078.944-2.115 0-1.694-1.36-2.54-4.076-2.54h-4.65v5.216zm28.944-2.95h-11.407c.073 1.057.556 1.91 1.45 2.555.893.646 1.915.97 3.064.97 1.824 0 3.21-.574 4.158-1.72l1.75 1.91c-1.568 1.62-3.61 2.43-6.127 2.43-2.043 0-3.78-.677-5.212-2.034-1.43-1.355-2.147-3.175-2.147-5.46s.728-4.1 2.187-5.448c1.46-1.347 3.178-2.02 5.157-2.02 1.98 0 3.66.595 5.048 1.788 1.386 1.192 2.08 2.835 2.08 4.93v2.1zM153.174 13.7h8.344c0-1.22-.383-2.157-1.15-2.812-.765-.656-1.71-.983-2.83-.983-1.122 0-2.13.34-3.024 1.024-.893.682-1.34 1.606-1.34 2.77zm17.59 8.33H167.7V1.764h3.063v20.262zm17.646-14.53V20.17c0 2.567-.7 4.493-2.094 5.776-1.395 1.284-3.187 1.925-5.376 1.925-2.188 0-4.167-.68-5.936-2.047l1.45-2.32c1.422 1.073 2.86 1.61 4.308 1.61 1.45 0 2.6-.373 3.447-1.12.848-.746 1.272-1.938 1.272-3.577V18.56c-.456.855-1.108 1.538-1.956 2.047-.85.51-1.8.765-2.86.765-1.933 0-3.52-.674-4.76-2.02-1.24-1.348-1.86-3.023-1.86-5.026 0-2.002.62-3.677 1.86-5.024 1.24-1.347 2.823-2.02 4.747-2.02s3.488.79 4.692 2.375V7.5h3.064zm-10.246 9.79c.738.866 1.732 1.3 2.98 1.3 1.25 0 2.263-.42 3.038-1.258.775-.837 1.163-1.88 1.163-3.126 0-1.248-.392-2.303-1.177-3.168-.784-.865-1.796-1.297-3.036-1.297s-2.23.445-2.968 1.337c-.74.892-1.108 1.934-1.108 3.127 0 1.192.37 2.22 1.108 3.085zm17.494 4.74h-3.064V7.497h3.064v14.53zm-3.447-18.79c0-.527.193-.982.576-1.364.383-.382.84-.574 1.368-.574.53 0 .985.192 1.368.574.383.382.574.837.574 1.365 0 .527-.19.982-.574 1.365-.383.382-.84.573-1.368.573-.53 0-.985-.19-1.368-.573-.383-.383-.575-.838-.575-1.366zm17.81 12.126V7.5h3.065v14.527h-3.064v-2.65c-.49.894-1.17 1.594-2.037 2.104-.866.51-1.8.766-2.804.766-1.643 0-2.97-.5-3.982-1.502-1.012-1-1.518-2.45-1.518-4.342V7.5h3.064v7.973c0 2.677 1.112 4.015 3.338 4.015 1.057 0 1.978-.35 2.763-1.052.784-.7 1.176-1.725 1.176-3.072zm10.315-1.2v7.863h-3.064V7.5h3.065v2.648c.437-.892 1.098-1.593 1.983-2.102.885-.51 1.837-.765 2.86-.765 2.297 0 3.856.948 4.677 2.84 1.44-1.892 3.237-2.84 5.39-2.84 1.64 0 2.967.502 3.98 1.503 1.012 1 1.518 2.45 1.518 4.342v8.902h-3.064v-7.974c0-2.676-1.113-4.014-3.34-4.014-1.038 0-1.945.33-2.72.996-.776.664-1.18 1.634-1.218 2.908v8.083h-3.064v-7.974c0-1.383-.246-2.398-.74-3.045-.49-.646-1.266-.97-2.324-.97-1.058 0-1.98.352-2.763 1.052-.783.7-1.175 1.725-1.175 3.073z"/></g></svg>

<?xml version="1.0" standalone="no"?>
<!DOCTYPE svg PUBLIC "-//W3C//DTD SVG 1.1//EN" "http://www.w3.org/Graphics/SVG/1.1/DTD/svg11.dtd">
<svg width="100%" height="100%" viewBox="0 0 241 28" version="1.1" xmlns="http://www.w3.org/2000/svg" xmlns:xlink="http://www.w3.org/1999/xlink" xml:space="preserve" style="fill-rule:evenodd;clip-rule:evenodd;stroke-linejoin:round;stroke-miterlimit:1.41421;">
    <g id="Group-+-Group-+-Ruby-Belgium-Copy">
        <g id="Group" transform="matrix(1,0,0,1,1.30272,1.30039)">
            <path d="M26.294,-0.519C26.357,-0.506 26.374,-0.506 26.433,-0.481C26.502,-0.452 26.554,-0.409 26.609,-0.359L33.029,6.319C33.075,6.374 33.09,6.386 33.122,6.45C33.195,6.595 33.197,6.77 33.128,6.917C33.098,6.982 33.083,6.995 33.04,7.051L16.794,24.938C16.742,24.987 16.731,25.003 16.668,25.04C16.503,25.137 16.292,25.137 16.126,25.04C16.064,25.004 16.053,24.988 16.001,24.938L-0.245,7.092C-0.289,7.036 -0.304,7.024 -0.334,6.959C-0.403,6.812 -0.401,6.638 -0.329,6.492C-0.297,6.428 -0.282,6.416 -0.237,6.361L6.168,-0.358C6.185,-0.374 6.202,-0.392 6.221,-0.407C6.277,-0.452 6.343,-0.485 6.413,-0.505C6.475,-0.522 6.492,-0.52 6.556,-0.524C13.135,-0.524 19.73,-0.96 26.294,-0.519ZM0.884,6.74L16.397,23.781L31.909,6.701L25.994,0.548L6.785,0.548C4.818,2.612 2.851,4.676 0.884,6.74Z" style="fill:rgb(189,38,40);fill-rule:nonzero;"/>
            <path d="M32.258,7.222L0.272,7.297L0.27,6.224L32.255,6.15C32.256,6.507 32.257,6.865 32.258,7.222Z" style="fill:rgb(189,38,40);fill-rule:nonzero;"/>
            <path d="M16.451,-0.491C16.534,-0.477 16.609,-0.455 16.679,-0.409C16.725,-0.379 16.734,-0.368 16.773,-0.332L22.796,5.902L25.74,-0.192L25.771,-0.249C25.824,-0.32 25.88,-0.381 25.958,-0.425C26.014,-0.457 26.076,-0.479 26.14,-0.489C26.405,-0.53 26.666,-0.362 26.738,-0.105C26.762,-0.021 26.765,0.067 26.747,0.152C26.735,0.208 26.727,0.221 26.705,0.274L23.427,7.06C23.395,7.118 23.362,7.17 23.314,7.216C23.172,7.351 22.961,7.398 22.775,7.336C22.691,7.307 22.624,7.259 22.559,7.2L16.384,0.809L10.083,7.203L10.035,7.247C9.981,7.285 9.928,7.317 9.865,7.338C9.677,7.398 9.467,7.348 9.326,7.21C9.278,7.163 9.246,7.111 9.215,7.053L6.069,0.266C6.048,0.213 6.04,0.2 6.029,0.143C6.009,0.037 6.021,-0.074 6.064,-0.174C6.09,-0.233 6.127,-0.288 6.172,-0.334C6.359,-0.525 6.669,-0.547 6.882,-0.385C6.953,-0.33 7,-0.262 7.042,-0.184L9.862,5.9L16.006,-0.335L16.051,-0.376C16.102,-0.413 16.151,-0.444 16.211,-0.465C16.262,-0.483 16.276,-0.483 16.33,-0.492C16.391,-0.495 16.391,-0.495 16.451,-0.491Z" style="fill:rgb(189,38,40);fill-rule:nonzero;"/>
            <path d="M23.006,6.203C23.088,6.217 23.162,6.239 23.233,6.283C23.389,6.382 23.484,6.559 23.482,6.743C23.481,6.805 23.467,6.862 23.449,6.921L16.892,24.762C16.852,24.855 16.801,24.936 16.72,24.999C16.512,25.163 16.206,25.147 16.016,24.962C15.957,24.905 15.92,24.84 15.887,24.766L9.2,6.924C9.182,6.865 9.167,6.809 9.166,6.746C9.162,6.539 9.282,6.345 9.467,6.254C9.542,6.217 9.619,6.205 9.702,6.2C14.137,6.2 18.579,5.953 23.006,6.203ZM10.475,7.272L16.384,23.037L22.178,7.272C18.277,7.272 14.376,7.272 10.475,7.272Z" style="fill:rgb(189,38,40);fill-rule:nonzero;"/>
        </g>
        <g id="Group1">
            <ellipse id="Oval-1" cx="8.468" cy="1.98" rx="1.954" ry="1.98" style="fill:rgb(189,38,40);"/>
            <ellipse id="Oval-1-Copy-2" cx="33.219" cy="8.482" rx="1.954" ry="1.98" style="fill:rgb(189,38,40);"/>
            <ellipse id="Oval-1-Copy-4" cx="26.706" cy="1.98" rx="1.954" ry="1.98" style="fill:rgb(189,38,40);"/>
            <ellipse id="Oval-1-Copy-6" cx="1.954" cy="8.482" rx="1.954" ry="1.98" style="fill:rgb(189,38,40);"/>
            <ellipse id="Oval-1-Copy-7" cx="17.587" cy="25.387" rx="1.954" ry="1.98" style="fill:rgb(189,38,40);"/>
        </g>
        <path id="Ruby-Belgium-Copy" d="M69.98,9.138C69.98,12.287 68.603,14.272 65.849,15.091L70.855,22.027L66.751,22.027L62.183,15.61L57.942,15.61L57.942,22.027L54.714,22.027L54.714,2.939L61.827,2.939C64.745,2.939 66.834,3.43 68.092,4.414C69.35,5.397 69.98,6.971 69.98,9.138ZM65.685,11.841C66.341,11.277 66.669,10.371 66.669,9.124C66.669,7.877 66.332,7.021 65.657,6.557C64.982,6.093 63.779,5.861 62.046,5.861L57.942,5.861L57.942,12.688L61.964,12.688C63.788,12.688 65.028,12.406 65.685,11.841ZM83.877,15.364L83.877,7.499L86.941,7.499L86.941,22.027L83.877,22.027L83.877,19.378C83.385,20.271 82.705,20.971 81.839,21.481C80.973,21.991 80.038,22.246 79.035,22.246C77.393,22.246 76.067,21.745 75.054,20.744C74.042,19.743 73.536,18.295 73.536,16.402L73.536,7.499L76.6,7.499L76.6,15.473C76.6,18.15 77.713,19.488 79.938,19.488C80.995,19.488 81.916,19.137 82.701,18.436C83.485,17.735 83.877,16.711 83.877,15.364ZM103.93,9.302C105.316,10.649 106.009,12.442 106.009,14.681C106.009,16.921 105.321,18.741 103.944,20.143C102.567,21.545 100.962,22.246 99.129,22.246C97.296,22.246 95.65,21.445 94.191,19.843L94.191,22.027L91.127,22.027L91.127,1.765L94.191,1.765L94.191,10.039C95.394,8.2 96.972,7.281 98.924,7.281C100.875,7.281 102.544,7.955 103.93,9.302ZM95.394,18.191C96.233,19.074 97.255,19.515 98.458,19.515C99.662,19.515 100.711,19.078 101.605,18.204C102.498,17.33 102.945,16.197 102.945,14.804C102.945,13.412 102.507,12.256 101.632,11.336C100.756,10.417 99.708,9.957 98.486,9.957C97.264,9.957 96.233,10.417 95.394,11.336C94.555,12.256 94.136,13.407 94.136,14.791C94.136,16.174 94.555,17.308 95.394,18.191ZM111.097,27.817C109.766,27.817 108.562,27.334 107.486,26.369L108.882,23.884C109.52,24.485 110.181,24.786 110.865,24.786C111.549,24.786 112.105,24.54 112.534,24.048C112.962,23.557 113.177,23.02 113.177,22.437C113.177,22.182 111.216,17.203 107.295,7.499L110.578,7.499L114.927,18.204L119.277,7.499L122.56,7.499L115.502,24.758C115.082,25.705 114.481,26.451 113.696,26.998C112.912,27.544 112.046,27.817 111.097,27.817ZM140.78,22.027L132.409,22.027L132.409,2.939L139.85,2.939C141.145,2.939 142.262,3.094 143.201,3.403C144.14,3.713 144.838,4.131 145.294,4.659C146.169,5.642 146.607,6.753 146.607,7.991C146.607,9.484 146.133,10.594 145.184,11.323C144.838,11.577 144.601,11.737 144.473,11.8C144.346,11.864 144.118,11.969 143.789,12.114C144.975,12.369 145.919,12.902 146.621,13.712C147.323,14.522 147.674,15.528 147.674,16.73C147.674,18.059 147.218,19.233 146.306,20.252C145.23,21.436 143.388,22.027 140.78,22.027ZM135.637,10.858L139.74,10.858C142.075,10.858 143.242,10.066 143.242,8.482C143.242,7.572 142.959,6.917 142.394,6.516C141.829,6.116 140.953,5.915 139.768,5.915L135.637,5.915L135.637,10.858ZM135.637,19.051L140.698,19.051C141.883,19.051 142.791,18.864 143.42,18.491C144.049,18.118 144.364,17.412 144.364,16.375C144.364,14.681 143.005,13.835 140.288,13.835L135.637,13.835L135.637,19.051ZM164.581,16.101L153.173,16.101C153.246,17.157 153.729,18.009 154.623,18.655C155.516,19.301 156.538,19.624 157.687,19.624C159.511,19.624 160.897,19.051 161.845,17.904L163.596,19.815C162.027,21.436 159.985,22.246 157.468,22.246C155.425,22.246 153.688,21.568 152.256,20.211C150.825,18.855 150.109,17.035 150.109,14.75C150.109,12.465 150.838,10.649 152.297,9.302C153.756,7.955 155.475,7.281 157.454,7.281C159.433,7.281 161.115,7.877 162.502,9.07C163.888,10.262 164.581,11.905 164.581,13.999L164.581,16.101ZM153.173,13.698L161.517,13.698C161.517,12.479 161.134,11.541 160.368,10.886C159.602,10.23 158.658,9.903 157.536,9.903C156.415,9.903 155.407,10.244 154.513,10.927C153.62,11.609 153.173,12.533 153.173,13.698ZM170.763,22.027L167.699,22.027L167.699,1.765L170.763,1.765L170.763,22.027ZM188.409,7.499L188.409,20.17C188.409,22.737 187.711,24.663 186.316,25.946C184.921,27.23 183.129,27.871 180.94,27.871C178.752,27.871 176.773,27.189 175.004,25.823L176.454,23.502C177.876,24.576 179.313,25.113 180.762,25.113C182.212,25.113 183.361,24.74 184.209,23.994C185.058,23.247 185.482,22.055 185.482,20.416L185.482,18.559C185.026,19.415 184.374,20.098 183.526,20.607C182.677,21.117 181.725,21.372 180.667,21.372C178.733,21.372 177.147,20.698 175.907,19.351C174.666,18.004 174.046,16.329 174.046,14.326C174.046,12.324 174.666,10.649 175.907,9.302C177.147,7.955 178.729,7.281 180.653,7.281C182.577,7.281 184.141,8.073 185.345,9.657L185.345,7.499L188.409,7.499ZM178.164,17.289C178.902,18.154 179.896,18.587 181.145,18.587C182.395,18.587 183.407,18.168 184.182,17.33C184.957,16.493 185.345,15.451 185.345,14.204C185.345,12.956 184.953,11.901 184.168,11.036C183.384,10.171 182.372,9.739 181.132,9.739C179.892,9.739 178.902,10.185 178.164,11.077C177.425,11.969 177.056,13.011 177.056,14.204C177.056,15.396 177.425,16.425 178.164,17.289ZM195.658,22.027L192.594,22.027L192.594,7.499L195.658,7.499L195.658,22.027ZM192.211,3.239C192.211,2.711 192.403,2.256 192.786,1.874C193.169,1.492 193.625,1.3 194.154,1.3C194.683,1.3 195.139,1.492 195.522,1.874C195.905,2.256 196.096,2.711 196.096,3.239C196.096,3.767 195.905,4.222 195.522,4.605C195.139,4.987 194.683,5.178 194.154,5.178C193.625,5.178 193.169,4.987 192.786,4.605C192.403,4.222 192.211,3.767 192.211,3.239ZM210.021,15.364L210.021,7.499L213.085,7.499L213.085,22.027L210.021,22.027L210.021,19.378C209.529,20.271 208.849,20.971 207.983,21.481C207.117,21.991 206.182,22.246 205.179,22.246C203.537,22.246 202.21,21.745 201.198,20.744C200.186,19.743 199.68,18.295 199.68,16.402L199.68,7.499L202.744,7.499L202.744,15.473C202.744,18.15 203.856,19.488 206.082,19.488C207.139,19.488 208.06,19.137 208.845,18.436C209.629,17.735 210.021,16.711 210.021,15.364ZM220.335,14.163L220.335,22.027L217.271,22.027L217.271,7.499L220.335,7.499L220.335,10.148C220.772,9.256 221.433,8.555 222.318,8.046C223.203,7.536 224.155,7.281 225.177,7.281C227.475,7.281 229.034,8.228 229.855,10.121C231.296,8.228 233.092,7.281 235.244,7.281C236.886,7.281 238.212,7.782 239.225,8.783C240.237,9.784 240.743,11.232 240.743,13.125L240.743,22.027L237.679,22.027L237.679,14.053C237.679,11.377 236.567,10.039 234.341,10.039C233.302,10.039 232.395,10.371 231.619,11.036C230.844,11.7 230.439,12.67 230.402,13.944L230.402,22.027L227.338,22.027L227.338,14.053C227.338,12.67 227.092,11.655 226.599,11.008C226.107,10.362 225.332,10.039 224.274,10.039C223.216,10.039 222.295,10.39 221.511,11.09C220.727,11.791 220.335,12.815 220.335,14.163Z" style="fill:rgb(189,38,40);"/>
    </g>
</svg>
